logos/gradle.svg

<?xml version="1.0" encoding="UTF-8"?>
<svg width="256px" height="188px" viewBox="0 0 256 188" version="1.1" xmlns="http://www.w3.org/2000/svg" xmlns:xlink="http://www.w3.org/1999/xlink" preserveAspectRatio="xMidYMid">
    <g>
        <path d="M242.08678,11.8947553 C226.620445,-3.57845046 201.673638,-4.00992041 185.681477,10.9191919 C184.914067,11.6431863 184.467166,12.6433945 184.439851,13.6980695 C184.445493,14.7482934 184.858879,15.7552589 185.592789,16.5065097 L190.647982,21.739077 C192.011075,23.0964262 194.163868,23.2474994 195.703174,22.0938274 C199.713048,19.0675791 204.603476,17.4374363 209.627124,17.4525105 C219.052991,17.4112768 227.56987,23.0684934 231.186492,31.7730153 C234.803114,40.4775372 232.802822,50.5045093 226.123015,57.1549851 C193.89986,89.3781401 150.886382,-0.905819089 53.270916,45.5369117 C49.9136349,47.1062801 47.3653193,50.0077326 46.2423493,53.5394732 C45.1193793,57.0712139 45.5240245,60.9116046 47.3584105,64.1317416 L64.0908011,93.0734561 C67.7236263,99.3391772 75.708598,101.536031 82.0352554,98.0103982 L82.4491308,97.7738979 L82.1239429,98.0103982 L89.5441374,93.8420818 C97.8137349,88.7071757 105.627223,82.8717856 112.898534,76.4001905 C114.43778,75.0798243 116.710106,75.0798243 118.249352,76.4001905 L118.249352,76.4001905 C119.158022,77.1129332 119.691473,78.2016086 119.697915,79.3564433 C119.719135,80.4788344 119.255955,81.5559976 118.426727,82.312696 C110.76814,89.1108483 102.528036,95.2241548 93.8011413,100.582338 L93.5646411,100.582338 L86.1444467,104.721092 C83.0080654,106.498631 79.4617275,107.425978 75.8566871,107.411282 C68.2794178,107.411872 61.2698464,103.395151 57.4392324,96.8574596 L41.6232802,69.5121216 C11.2330018,90.9745166 -7.21401537,132.332493 2.68943136,184.805979 C3.05238462,186.613115 4.630317,187.91984 6.47343489,187.939608 L24.5065767,187.939608 C26.4460384,187.939608 28.0814398,186.494195 28.3201428,184.569479 C29.9827135,171.36939 41.2081637,161.469113 54.5125422,161.469113 C67.8169207,161.469113 79.0423709,171.36939 80.7049416,184.569479 C80.9574458,186.498798 82.6022985,187.939608 84.5480702,187.939608 L102.108212,187.939608 C104.047673,187.939608 105.683075,186.494195 105.921778,184.569479 C107.637793,171.405162 118.853268,161.556778 132.128958,161.556778 C145.404648,161.556778 156.620124,171.405162 158.336139,184.569479 C158.574842,186.494195 160.210243,187.939608 162.149705,187.939608 L179.502909,187.939608 C181.602533,187.939608 183.313735,186.254979 183.346037,184.155604 C183.759913,159.707393 190.352356,131.622992 209.154124,117.551229 C274.280372,68.8321835 257.163669,27.060332 242.08678,11.8947553 Z M175.65978,85.5941366 L163.243464,79.3564433 L163.243464,79.3564433 C163.229874,75.6716754 165.795264,72.4793993 169.39663,71.69974 C172.997995,70.9200808 176.653993,72.7654893 178.165574,76.1259689 C179.677154,79.4864485 178.632425,83.4462961 175.65978,85.6236991 L175.65978,85.5941366 Z" fill="#02303A" fill-rule="nonzero"></path>
    </g>
</svg>

<svg preserveAspectRatio="xMidYMid" viewBox="0 0 256 188" xmlns="http://www.w3.org/2000/svg">
  <path fill="#02303A" d="M242.087 11.895C226.62-3.578 201.674-4.01 185.68 10.919a3.961 3.961 0 0 0-1.241 2.78 4.05 4.05 0 0 0 1.153 2.808l5.055 5.232a3.873 3.873 0 0 0 5.055.355 23 23 0 0 1 13.924-4.641 23.236 23.236 0 0 1 16.496 39.702C193.9 89.378 150.886-.905 53.271 45.537a13.274 13.274 0 0 0-5.913 18.595l16.733 28.941c3.633 6.266 11.618 8.463 17.944 4.937l.414-.236-.325.236 7.42-4.168A170.073 170.073 0 0 0 112.9 76.4a4.11 4.11 0 0 1 5.35 0 3.784 3.784 0 0 1 1.449 2.956 3.902 3.902 0 0 1-1.271 2.957 175.128 175.128 0 0 1-24.626 18.27h-.236l-7.42 4.138a20.694 20.694 0 0 1-10.288 2.69A21.344 21.344 0 0 1 57.44 96.857L41.623 69.512C11.233 90.975-7.214 132.332 2.69 184.806a3.902 3.902 0 0 0 3.784 3.134h18.034a3.843 3.843 0 0 0 3.813-3.37c1.663-13.2 12.888-23.1 26.193-23.1 13.304 0 24.53 9.9 26.192 23.1a3.874 3.874 0 0 0 3.843 3.37h17.56a3.843 3.843 0 0 0 3.814-3.37c1.716-13.165 12.931-23.013 26.207-23.013 13.276 0 24.491 9.848 26.207 23.012a3.843 3.843 0 0 0 3.814 3.37h17.353c2.1 0 3.81-1.684 3.843-3.783.414-24.449 7.006-52.533 25.808-66.605 65.126-48.719 48.01-90.49 32.933-105.656Zm-66.427 73.7-12.417-6.239a7.805 7.805 0 1 1 12.417 6.268v-.03Z"/>
</svg>
